X: 3506
T: Biddy Martin's
R: polka
M: 2/4
K: Gmajor
|:B/A/G|EA AB|AG B/A/G|EA AF|G2 B/A/G|
EA AB|AG B/A/G|EA AF|G2:|
|:B/A/B|AB dB|AG B2|AB dB|A2 B/A/B|
AB dB|AG B/A/G|EA AF|G2:|

